build/Karasa-Jaga/scalable/status/network-error-symbolic.svg

<svg height="16" width="16" xmlns="http://www.w3.org/2000/svg"><path d="m.40429688 3.9804688a.151613.151613 0 0 0 -.13671876.1523437v9.0820315a.151613.151613 0 0 0 .15234376.152344h4.62890622v.949218h-.8515625a.151613.151613 0 0 0 -.1523437.152344v.564453a.151613.151613 0 0 0 .1523437.152344h4.0136719a.151613.151613 0 0 0 .1523437-.152344v-.511719c-.0566893-.067964-.1152995-.133806-.1679687-.205078h-.8339844v-.949218h.2871094c-.1272898-.308688-.2134137-.63784-.2695313-.976563h-6.0136718v-7.4355469h9.6777346v2.2773438c.24906-.0427327.502417-.078125.763672-.078125.114467 0 .221664.0248061.333984.0332031v-3.0546875a.151613.151613 0 0 0 -.152344-.1523437h-11.56835912a.151613.151613 0 0 0 -.015625 0z" fill="#bebebe" opacity=".35"/><path d="m15.939453.41796875-3.527344.00195313v4.50585932h1.304688l.019531 2.6796876c.328674.1571648.631493.3552915.910156.5839843l-.02539-3.2636719 1.318359-.0019531zm-.619141.66601565v3.1738281l-2.289062.0019531v-3.1738281z" fill="#bebebe" opacity=".35"/><path d="m11.805845 8.1546c-1.9330002 0-3.5000002 1.567-3.5000002 3.5s1.567 3.5 3.5000002 3.5c1.933 0 3.5-1.567 3.5-3.5s-1.567-3.5-3.5-3.5zm-2.5000002 2.9688h5.0000002v1.0312h-5.0000002z" fill="#ef2929"/></svg>

<?xml version="1.0" encoding="UTF-8" standalone="no"?>
<!-- Created with Inkscape (http://www.inkscape.org/) -->

<svg
   xmlns:osb="http://www.openswatchbook.org/uri/2009/osb"
   xmlns:dc="http://purl.org/dc/elements/1.1/"
   xmlns:cc="http://creativecommons.org/ns#"
   xmlns:rdf="http://www.w3.org/1999/02/22-rdf-syntax-ns#"
   xmlns:svg="http://www.w3.org/2000/svg"
   xmlns="http://www.w3.org/2000/svg"
   xmlns:xlink="http://www.w3.org/1999/xlink"
   xmlns:sodipodi="http://sodipodi.sourceforge.net/DTD/sodipodi-0.dtd"
   xmlns:inkscape="http://www.inkscape.org/namespaces/inkscape"
   id="svg7384"
   height="16"
   width="16"
   version="1.1"
   inkscape:version="0.92.2 (unknown)"
   sodipodi:docname="network-error-symbolic.svg">
  <defs
     id="defs4225">
    <linearGradient
       id="linearGradient5606-0"
       osb:paint="solid">
      <stop
         id="stop5608-6"
         offset="0"
         style="stop-color:#000000;stop-opacity:1;" />
    </linearGradient>
    <linearGradient
       inkscape:collect="always"
       gradientTransform="matrix(0.08112299,0,0,0.07855526,540.8143,254.8467)"
       gradientUnits="userSpaceOnUse"
       xlink:href="#linearGradient3785-2"
       id="linearGradient3189-2"
       x1="365.51193"
       x2="365.97757"
       y1="408.39655"
       y2="520.1709" />
    <linearGradient
       id="linearGradient3785-2">
      <stop
         id="stop3787-5"
         offset="0"
         style="stop-color:#384880;stop-opacity:1;" />
      <stop
         id="stop3789-7"
         offset="1"
         style="stop-color:#000000;stop-opacity:1;" />
    </linearGradient>
    <linearGradient
       id="linearGradient5606"
       osb:paint="solid">
      <stop
         id="stop5608"
         offset="0"
         style="stop-color:#000000;stop-opacity:1;" />
    </linearGradient>
    <linearGradient
       inkscape:collect="always"
       gradientTransform="matrix(0.08112299,0,0,0.07855526,540.8143,254.8467)"
       gradientUnits="userSpaceOnUse"
       xlink:href="#linearGradient3785-6"
       id="linearGradient3189"
       x1="365.51193"
       x2="365.97757"
       y1="408.39655"
       y2="520.1709" />
    <linearGradient
       id="linearGradient3785-6">
      <stop
         id="stop3787"
         offset="0"
         style="stop-color:#384880;stop-opacity:1;" />
      <stop
         id="stop3789"
         offset="1"
         style="stop-color:#000000;stop-opacity:1;" />
    </linearGradient>
    <linearGradient
       gradientTransform="translate(0,-1036.3622)"
       y2="1052.3365"
       x2="6.2342343"
       y1="1036.4342"
       x1="6.2342343"
       gradientUnits="userSpaceOnUse"
       id="linearGradient3804"
       xlink:href="#linearGradient3779"
       inkscape:collect="always" />
    <linearGradient
       gradientUnits="userSpaceOnUse"
       y2="1052.3365"
       x2="6.2342343"
       y1="1036.4342"
       x1="6.2342343"
       id="linearGradient3812"
       xlink:href="#linearGradient3779"
       inkscape:collect="always" />
    <radialGradient
       gradientTransform="matrix(1.3020488e-5,1.7443014,-1.3603604,1.0154528e-5,1426.7246,1025.7323)"
       gradientUnits="userSpaceOnUse"
       r="5"
       fy="1045.0559"
       fx="11.072059"
       cy="1045.0559"
       cx="11.072059"
       id="radialGradient3796"
       xlink:href="#linearGradient3790"
       inkscape:collect="always" />
    <linearGradient
       gradientUnits="userSpaceOnUse"
       y2="7.984375"
       x2="14.8125"
       y1="7.984375"
       x1="1.1875"
       id="linearGradient3806"
       xlink:href="#linearGradient3800"
       inkscape:collect="always" />
    <linearGradient
       gradientUnits="userSpaceOnUse"
       y2="1052.2942"
       x2="3.4594595"
       y1="1036.4342"
       x1="3.4594595"
       id="linearGradient3785"
       xlink:href="#linearGradient3779"
       inkscape:collect="always" />
    <radialGradient
       gradientTransform="matrix(1.4806489e-6,1.9101011,-1.3873874,1.0754581e-6,1450.2076,1024.0417)"
       gradientUnits="userSpaceOnUse"
       r="8"
       fy="1039.4613"
       fx="8.0720873"
       cy="1039.4613"
       cx="8.0720873"
       id="radialGradient3777"
       xlink:href="#linearGradient3771"
       inkscape:collect="always" />
    <linearGradient
       gradientTransform="translate(-4,27.000017)"
       gradientUnits="userSpaceOnUse"
       y2="1024.1722"
       x2="14.801802"
       y1="1010.4072"
       x1="14.801802"
       id="linearGradient4542"
       xlink:href="#linearGradient4536"
       inkscape:collect="always" />
    <linearGradient
       id="linearGradient3702-501-757">
      <stop
         offset="0"
         style="stop-color:#181818;stop-opacity:0"
         id="stop2895" />
      <stop
         offset="0.5"
         style="stop-color:#181818;stop-opacity:1"
         id="stop2897" />
      <stop
         offset="1"
         style="stop-color:#181818;stop-opacity:0"
         id="stop2899" />
    </linearGradient>
    <linearGradient
       y2="39.999443"
       x2="25.058096"
       y1="47.027729"
       x1="25.058096"
       gradientUnits="userSpaceOnUse"
       id="linearGradient3136"
       xlink:href="#linearGradient3702-501-757"
       inkscape:collect="always" />
    <linearGradient
       id="linearGradient3688-464-309">
      <stop
         offset="0"
         style="stop-color:#181818;stop-opacity:1"
         id="stop2889" />
      <stop
         offset="1"
         style="stop-color:#181818;stop-opacity:0"
         id="stop2891" />
    </linearGradient>
    <radialGradient
       r="2.5"
       fy="43.5"
       fx="4.9929786"
       cy="43.5"
       cx="4.9929786"
       gradientTransform="matrix(2.003784,0,0,1.4,-20.01187,-104.4)"
       gradientUnits="userSpaceOnUse"
       id="radialGradient3134"
       xlink:href="#linearGradient3688-464-309"
       inkscape:collect="always" />
    <linearGradient
       id="linearGradient3688-166-749">
      <stop
         offset="0"
         style="stop-color:#181818;stop-opacity:1"
         id="stop2883" />
      <stop
         offset="1"
         style="stop-color:#181818;stop-opacity:0"
         id="stop2885" />
    </linearGradient>
    <radialGradient
       r="2.5"
       fy="43.5"
       fx="4.9929786"
       cy="43.5"
       cx="4.9929786"
       gradientTransform="matrix(2.003784,0,0,1.4,27.98813,-17.4)"
       gradientUnits="userSpaceOnUse"
       id="radialGradient3132"
       xlink:href="#linearGradient3688-166-749"
       inkscape:collect="always" />
    <linearGradient
       id="linearGradient4536">
      <stop
         id="stop4538"
         offset="0"
         style="stop-color:#ffffff;stop-opacity:1;" />
      <stop
         style="stop-color:#ffffff;stop-opacity:0.15686275;"
         offset="0.08246523"
         id="stop4546" />
      <stop
         style="stop-color:#ffffff;stop-opacity:0.23529412;"
         offset="0.936414"
         id="stop4544" />
      <stop
         id="stop4540"
         offset="1"
         style="stop-color:#ffffff;stop-opacity:0.39215687;" />
    </linearGradient>
    <linearGradient
       id="linearGradient3771">
      <stop
         id="stop3773"
         offset="0"
         style="stop-color:#ffffff;stop-opacity:1;" />
      <stop
         id="stop3775"
         offset="1"
         style="stop-color:#e6e6e6;stop-opacity:1;" />
    </linearGradient>
    <linearGradient
       id="linearGradient3779">
      <stop
         id="stop3781"
         offset="0"
         style="stop-color:#828282;stop-opacity:1;" />
      <stop
         id="stop3783"
         offset="1"
         style="stop-color:#505050;stop-opacity:1;" />
    </linearGradient>
    <linearGradient
       id="linearGradient3800"
       inkscape:collect="always">
      <stop
         id="stop3802"
         offset="0"
         style="stop-color:#000000;stop-opacity:0;" />
      <stop
         style="stop-color:#000000;stop-opacity:1;"
         offset="0.5"
         id="stop3808" />
      <stop
         id="stop3804"
         offset="1"
         style="stop-color:#000000;stop-opacity:0;" />
    </linearGradient>
    <linearGradient
       id="linearGradient3790">
      <stop
         id="stop3792"
         offset="0"
         style="stop-color:#93d0e9;stop-opacity:1;" />
      <stop
         id="stop3794"
         offset="1"
         style="stop-color:#3372b1;stop-opacity:1;" />
    </linearGradient>
    <inkscape:perspective
       sodipodi:type="inkscape:persp3d"
       inkscape:vp_x="0 : 8 : 1"
       inkscape:vp_y="0 : 1000 : 0"
       inkscape:vp_z="16 : 8 : 1"
       inkscape:persp3d-origin="8 : 5.3333333 : 1"
       id="perspective19" />
    <linearGradient
       id="SpecificGradient"
       x1="6.5625"
       y1="2"
       x2="6.5625"
       y2="14.000651"
       gradientUnits="userSpaceOnUse">
      <stop
         style="stop-color:#ad0707;stop-opacity:1;"
         offset="0"
         id="stop3292" />
      <stop
         style="stop-color:#f75535;stop-opacity:1;"
         offset="1"
         id="stop3294" />
    </linearGradient>
    <inkscape:perspective
       id="perspective3648"
       inkscape:persp3d-origin="0.5 : 0.33333333 : 1"
       inkscape:vp_z="1 : 0.5 : 1"
       inkscape:vp_y="0 : 1000 : 0"
       inkscape:vp_x="0 : 0.5 : 1"
       sodipodi:type="inkscape:persp3d" />
    <linearGradient
       inkscape:collect="always"
       xlink:href="#SpecificGradient"
       id="linearGradient3628"
       gradientUnits="userSpaceOnUse"
       x1="6.5625"
       y1="2"
       x2="6.5625"
       y2="14.000651"
       gradientTransform="translate(-20,0)" />
    <clipPath
       clipPathUnits="userSpaceOnUse"
       id="clipPath3635">
      <path
         style="fill:#ff00ff;fill-opacity:1;stroke:none;display:inline"
         d="m -20,0 0,16 16,0 0,-16 -16,0 z m 8,2 c 3.312,0 6,2.6880001 6,6 0,3.312 -2.688,6 -6,6 -3.312,0 -6,-2.688 -6,-6 0,-3.3119999 2.688,-6 6,-6 z m 0,2.15625 c -0.57648,0 -1.133672,0.1167299 -1.625,0.34375 L -8.5,9.625 C -8.273784,9.1343862 -8.15625,8.5753957 -8.15625,8 -8.15625,5.8708574 -9.870857,4.1562499 -12,4.15625 z m -3.46875,2.125 c -0.255374,0.5152866 -0.375,1.1050247 -0.375,1.71875 0,2.129143 1.714607,3.84375 3.84375,3.84375 0.61479,0 1.202796,-0.118796 1.71875,-0.375 l -5.1875,-5.1875 z"
         id="path3637" />
    </clipPath>
    <linearGradient
       inkscape:collect="always"
       xlink:href="#SpecificGradient"
       id="linearGradient3783"
       gradientUnits="userSpaceOnUse"
       x1="6.5625"
       y1="2"
       x2="6.5625"
       y2="14.000651" />
    <linearGradient
       inkscape:collect="always"
       xlink:href="#SpecificGradient"
       id="linearGradient3787"
       gradientUnits="userSpaceOnUse"
       x1="6.5625"
       y1="2"
       x2="6.5625"
       y2="14.000651" />
  </defs>
  <sodipodi:namedview
     pagecolor="#ffffff"
     bordercolor="#666666"
     borderopacity="1"
     objecttolerance="10"
     gridtolerance="10"
     guidetolerance="10"
     inkscape:pageopacity="0"
     inkscape:pageshadow="2"
     inkscape:window-width="1366"
     inkscape:window-height="706"
     id="namedview4223"
     showgrid="false"
     inkscape:zoom="16"
     inkscape:cx="12.359223"
     inkscape:cy="5.088078"
     inkscape:window-x="0"
     inkscape:window-y="0"
     inkscape:window-maximized="1"
     inkscape:current-layer="svg7384"
     showguides="true"
     inkscape:guide-bbox="true" />
  <metadata
     id="metadata90">
    <rdf:RDF>
      <cc:Work
         rdf:about="">
        <dc:format>image/svg+xml</dc:format>
        <dc:type
           rdf:resource="http://purl.org/dc/dcmitype/StillImage" />
        <dc:title>Gnome Symbolic Icon Theme</dc:title>
      </cc:Work>
    </rdf:RDF>
  </metadata>
  <title
     id="title9167">Gnome Symbolic Icon Theme</title>
  <path
     style="opacity:0.35;fill:#bebebe;fill-opacity:1;stroke:none;stroke-width:0.91314405"
     d="M 0.40429688 3.9804688 A 0.151613 0.151613 0 0 0 0.26757812 4.1328125 L 0.26757812 13.214844 A 0.151613 0.151613 0 0 0 0.41992188 13.367188 L 5.0488281 13.367188 L 5.0488281 14.316406 L 4.1972656 14.316406 A 0.151613 0.151613 0 0 0 4.0449219 14.46875 L 4.0449219 15.033203 A 0.151613 0.151613 0 0 0 4.1972656 15.185547 L 8.2109375 15.185547 A 0.151613 0.151613 0 0 0 8.3632812 15.033203 L 8.3632812 14.521484 C 8.3065919 14.45352 8.2479817 14.387678 8.1953125 14.316406 L 7.3613281 14.316406 L 7.3613281 13.367188 L 7.6484375 13.367188 C 7.5211477 13.0585 7.4350238 12.729348 7.3789062 12.390625 L 1.3652344 12.390625 L 1.3652344 4.9550781 L 11.042969 4.9550781 L 11.042969 7.2324219 C 11.292029 7.1896892 11.545386 7.1542969 11.806641 7.1542969 C 11.921108 7.1542969 12.028305 7.179103 12.140625 7.1875 L 12.140625 4.1328125 A 0.151613 0.151613 0 0 0 11.988281 3.9804688 L 0.41992188 3.9804688 A 0.151613 0.151613 0 0 0 0.40429688 3.9804688 z "
     id="rect19685" />
  <path
     style="opacity:0.35;fill:#bebebe;fill-opacity:1;stroke:none;stroke-width:1.0903374"
     d="M 15.939453 0.41796875 L 12.412109 0.41992188 L 12.412109 4.9257812 L 13.716797 4.9257812 L 13.736328 7.6054688 C 14.065002 7.7626336 14.367821 7.9607603 14.646484 8.1894531 L 14.621094 4.9257812 L 15.939453 4.9238281 L 15.939453 0.41796875 z M 15.320312 1.0839844 L 15.320312 4.2578125 L 13.03125 4.2597656 L 13.03125 1.0859375 L 15.320312 1.0839844 z "
     id="path19869" />
  <path
     inkscape:connector-curvature="0"
     d="m 11.805845,8.1546 c -1.9330002,0 -3.5000002,1.567 -3.5000002,3.5 0,1.933 1.567,3.5 3.5000002,3.5 1.933,0 3.5,-1.567 3.5,-3.5 0,-1.933 -1.567,-3.5 -3.5,-3.5 z m -2.5000002,2.9688 h 5.0000002 v 1.0312 H 9.3058448 Z"
     id="path3482-5"
     style="color:#bebebe;fill:#ef2929" />
</svg>
